icons/pin-16.svg

<svg xmlns="http://www.w3.org/2000/svg" width="16" height="16" viewBox="0 0 16 16"><path d="M4.456.734a1.75 1.75 0 012.826.504l.613 1.327a3.08 3.08 0 002.084 1.707l2.454.584c1.332.317 1.8 1.972.832 2.94L11.06 10l3.72 3.72a.748.748 0 01-.332 1.265.75.75 0 01-.729-.205L10 11.06l-2.204 2.205c-.968.968-2.623.5-2.94-.832l-.584-2.454a3.08 3.08 0 00-1.707-2.084l-1.327-.613a1.75 1.75 0 01-.504-2.826zM5.92 1.866a.253.253 0 00-.183-.142.251.251 0 00-.221.07L1.794 5.516a.251.251 0 00-.07.221c.015.08.068.149.142.183l1.328.613A4.582 4.582 0 015.73 9.63l.584 2.454a.251.251 0 00.42.12l5.47-5.47a.25.25 0 00-.12-.42L9.63 5.73a4.583 4.583 0 01-3.098-2.537z"/></svg>

<svg xmlns="http://www.w3.org/2000/svg" width="16" height="16" viewBox="0 0 16 16">
  <defs/>
  <path d="M4.456,0.734 C4.861,0.33 5.437,0.148 6,0.249 C6.564,0.349 7.042,0.719 7.282,1.238 L7.895,2.565 C8.291,3.424 9.059,4.053 9.979,4.272 L12.433,4.856 C13.765,5.173 14.233,6.828 13.265,7.796 L11.06,10 L14.78,13.72 C14.975,13.908 15.053,14.187 14.984,14.449 C14.915,14.712 14.711,14.916 14.448,14.985 C14.186,15.053 13.907,14.975 13.719,14.78 L10,11.06 L7.796,13.265 C6.828,14.233 5.173,13.765 4.856,12.433 L4.272,9.979 C4.053,9.059 3.424,8.291 2.565,7.895 L1.238,7.282 C0.719,7.042 0.349,6.564 0.249,6 C0.148,5.437 0.33,4.861 0.734,4.456 Z M5.92,1.866 C5.886,1.792 5.817,1.739 5.737,1.724 C5.656,1.71 5.574,1.736 5.516,1.794 L1.794,5.516 C1.736,5.574 1.71,5.656 1.724,5.737 C1.739,5.817 1.792,5.886 1.866,5.92 L3.194,6.533 C4.469,7.122 5.404,8.263 5.73,9.63 L6.314,12.084 C6.335,12.172 6.402,12.242 6.489,12.267 C6.576,12.292 6.67,12.268 6.734,12.204 L12.204,6.734 C12.268,6.67 12.292,6.576 12.267,6.489 C12.242,6.402 12.172,6.335 12.084,6.314 L9.63,5.73 C8.263,5.404 7.121,4.469 6.532,3.193 Z"/>
</svg>
